X: 130262
T: Mystery Reel
C: Peter Fitzgerald
Z: B.Black
R: reel
M: 4/4
L: 1/8
K: Ador
A2 (3cBA EAGA | FDDE GddB | cEGE C3 E | DFAd cAFG |
A2 (3cBA EAGA | FDDE GddB | cege fefg | bagf edcB :|
c3 A GE E2 | cAGc A3 A | Ae e2 dg g2 | afgb agfd |
c3 A GE E2 | cAGc A3 A | Aede c2 ec | cedB cdcB :|
